X:1
T:Title
%%score ( 1 2 ) { 3 | 4 }
L:1/8
Q:1/4=130
M:3/4
K:Db
V:1 treble nm="Grand Piano, Soprano"
V:2 treble 
V:3 bass nm="Choir Pad, Evening Hymn (Miller)"
V:4 bass 
V:1
 [DA]4 [FA]2 | [_FB]4 [FB]2 | A2 d2 [DF]2 | [FA]6 | [EG]4 [=DF]2 | [EG]2 [GB]2 [FA]2 | [DF]6 | %7
w: By~Lucy~Jane~Rider~Meyer *|||||||
 [DF]4 [FA]2 | [_F=G]4 [FG]2 | [FA]6 | [DF]6 | [CE]4 [_C=D]2 | C2- [CG]2 [CF]2 | D6 | [EA]4 [Ac]2 | %15
w: ||||||||
 [Ae]4 [Gc]2 | [Fd]2 [Ge]2 [Af]2 | [FA]6 | [CG]4 [EG]2 | [CG]4 [EG]2 | F2 G2 [DA]2 | [Fd]6 | %22
w: |||||||
 [Af]3 [Ge] [Fd]2 | [Bd]3 [Ac] [GB]2 | [FA]4 [DF]2 | [FA]4 [Fd]2 | A3 G [DF]2 | B3 A [DG]2 | %28
w: ||||||
 [DF]4 D2 | [DF]4 [FA]2 | [Ge]4 [F=d]2 | [Ge]2 [Af]2 [Ge]2 | d6 | A6 | [EG]4 [=DF]2 | %35
w: |||||||
 [EG]2 [FA]2 [EG]2 | [DF]6- | [DF]6 |] %38
w: |||
V:2
 x6 | x6 | F4 z2 | x6 | x6 | x6 | x6 | x6 | x6 | x6 | x6 | x6 | E2 z2 z2 | x6 | x6 | x6 | x6 | x6 | %18
 x6 | x6 | D4 z2 | x6 | x6 | x6 | x6 | x6 | D4 z2 | D4 z2 | x6 | x6 | x6 | x6 | F6- | F6 | x6 | %35
 x6 | x6 | x6 |] %38
V:3
 F,4 A,2 | =G,4 G,2 | A,6 | A,6 | C4 C2 | C4 C2 | D6 | A,4 A,2 | B,4 B,2 | A,2 D2 F,2 | A,6 | %11
 G,4 F,2 | G,2 B,2 A,2 | F,6 | C4 E2 | C4 E2 | D4[K:bass] A,2 | D4 A,2 | A,4 C2 | E4 C2 | %20
 D2 E2 F2 | A,6 | A,4 D2 | D4 D2 | D4 A,2 | D4 A,2 | F3 E D2 | D3 C[K:bass] B,2 | A,4 F,2 | %29
 A,4 D2 | C4 C2 | C4 C2 | D6- | D6 | C4[K:bass] A,2 | A,4 A,2 | A,6- | A,6 |] %38
V:4
 D,4 D,2 | D,4 D,2 | D,6 | D,6 | A,,4 A,,2 | A,,4 A,,2 | D,6 | D,4 D,2 | D,4 D,2 | D,6 | D,6 | %11
 A,,4 A,,2 | A,,4 A,,2 | D,6 | A,4 A,2 | A,4 A,2 | D,4 D,2 | D,6 | A,,4 A,,2 | A,,4 A,,2 | %20
 D,4 D,2 | D,6 | D,4 D,2 | G,4 G,2 | D,4 D,2 | D,4 D,2 | D,4 D,2 | G,4 G,2 | D,4 D,2 | D,4 D,2 | %30
 A,4 A,2 | A,4 A,2 | D,6- | D,6 | A,,4 A,,2 | A,,4 A,,2 | D,6- | D,6 |] %38

